X:1318
T:Behind the Bush in the Garden
T:Who'll be King But Charlie
T:Royal Charlie
M:6/8
L:1/8
S:O'Neill's
K:C
B|c2A AGE|c2A AGE|G2G GAE|G3 E2B|!
c2d e2a|g2e d2e|c2 A BAG|A3 A2:|!
B|c2B c2d|efe e2d|c2B c2d|e3 G2G|![1 c2B c2d|efe e2d|\
cBA BAG|A3 A2:|![2 c2d e2a|g2e d2e|c2 A BAG|A3 A2||!


